X: 42149
T: Watchmaker, The
R: reel
M: 4/4
K: Aminor
|cAAc BGGB|cAAB cded|cAAc BGGB|cABG EAAB|
cAAc BGGB|cAAB cded|cAAc BGGB|c/B/A BG EA A2||
c3e g3e|G3B dGBG|cBce g3d|eaag a3g|
geeg fdd=f|ecce dBGB|ABcd e=fed|cABG EAAB||

